X: 175
T:Mixolydian/Dorian/Minor (3,6-gap, so/re/la, pi-3) Pentatonic Scales
L:1/4
M:8/4
K:EbMix
"^E flat"  E2 FA Bd e2|e2 dB AF E2||
M:8/4
K:BbMix
"^B flat"  B2 ce fa b2|b2 af ec B2||
M:8/4
K:FMix
"^F"       F2 GB ce f2|f2 ec BG F2||
M:8/4
K:CMix
"^C"       C2 DF GB c2|c2 BG FD C2||
M:8/4
K:GMix
"^G"       G2 Ac df g2|g2 fd cA G2||
M:8/4
K:DDor
"^D"       D2 EG Ac d2|d2 cA GE D2||
M:8/4
K:AMin
"^A"       A2 Bd eg a2|a2 ge dB A2||
M:8/4
K:EMin
"^E"       E2 FA Bd e2|e2 dB AF E2||
M:8/4
K:BMin
"^B"       B2 ce fa b2|b2 af ec B2||
M:8/4
K:F#Min
"^F sharp" F2 GB ce f2|f2 ec BG F2||
M:8/4
K:C#Min
"^C sharp" C2 DF GB c2|c2 BG FD C2|]

One oddity of the piano keyboard layout may explain why the piano accordion
works so well for Highland pipe tunes.  The mixolydian/dorian/minor
pentatonic scale fits on the white notes no matter whether you use G, D or A
as the home note; this is one of the commonest scales in Highland music and
these are by far the commonest home notes any Scottish music uses.  Watch an
accordionist's fingers: when playing Highland music like pipe marches, the
black notes are rarely touched, despite frequent key changes.

In principle, there are three ways to get this mode on the pipes: by far the
commonest uses the A-mode with the CF-gap pitch set, but in principle it can
be fitted to the E-mode on the GC-gap set or the B-mode on the DG-gap set.

Tunes in this mode could often have the gap filled or created.  It is not
clear which of these (the same tune in two different rhythms) came first:

